style-guide/assets/xd-icons-grid.svg

<?xml version="1.0" encoding="UTF-8"?>
<svg width="24px" height="24px" viewBox="0 0 24 24" version="1.1" xmlns="http://www.w3.org/2000/svg" xmlns:xlink="http://www.w3.org/1999/xlink">
    <!-- Generator: Sketch 51.3 (57544) - http://www.bohemiancoding.com/sketch -->
    <title>bento</title>
    <desc>Created with Sketch.</desc>
    <defs>
        <path d="M2,22 L8.25,22 L8.25,15.75 L2,15.75 L2,22 Z M9.25,24 L1,24 C0.447,24 0,23.552 0,23 L0,14.75 C0,14.198 0.447,13.75 1,13.75 L9.25,13.75 C9.803,13.75 10.25,14.198 10.25,14.75 L10.25,23 C10.25,23.552 9.803,24 9.25,24 Z M15.75,22 L22,22 L22,15.75 L15.75,15.75 L15.75,22 Z M23,24 L14.75,24 C14.197,24 13.75,23.552 13.75,23 L13.75,14.75 C13.75,14.198 14.197,13.75 14.75,13.75 L23,13.75 C23.553,13.75 24,14.198 24,14.75 L24,23 C24,23.552 23.553,24 23,24 Z M15.75,8.25 L22,8.25 L22,2 L15.75,2 L15.75,8.25 Z M23,10.25 L14.75,10.25 C14.197,10.25 13.75,9.802 13.75,9.25 L13.75,1 C13.75,0.448 14.197,0 14.75,0 L23,0 C23.553,0 24,0.448 24,1 L24,9.25 C24,9.802 23.553,10.25 23,10.25 Z M2,8.25 L8.25,8.25 L8.25,2 L2,2 L2,8.25 Z M9.25,10.25 L1,10.25 C0.447,10.25 0,9.802 0,9.25 L0,1 C0,0.448 0.447,0 1,0 L9.25,0 C9.803,0 10.25,0.448 10.25,1 L10.25,9.25 C10.25,9.802 9.803,10.25 9.25,10.25 Z" id="path-1"></path>
    </defs>
    <g id="bento" stroke="none" stroke-width="1" fill="none" fill-rule="evenodd">
        <mask id="mask-2" fill="white">
            <use xlink:href="#path-1"></use>
        </mask>
        <use id="icons/24px/Grid" fill="#000000" xlink:href="#path-1"></use>
    </g>
</svg>

<svg viewBox="0 0 24 24" xmlns="http://www.w3.org/2000/svg" xmlns:xlink="http://www.w3.org/1999/xlink">
  <path d="M2 22h6.25v-6.25H2V22zm7.25 2H1a1 1 0 0 1-1-1v-8.25a1 1 0 0 1 1-1h8.25a1 1 0 0 1 1 1V23a1 1 0 0 1-1 1zm6.5-2H22v-6.25h-6.25V22zM23 24h-8.25a1 1 0 0 1-1-1v-8.25a1 1 0 0 1 1-1H23a1 1 0 0 1 1 1V23a1 1 0 0 1-1 1zM15.75 8.25H22V2h-6.25v6.25zm7.25 2h-8.25a1 1 0 0 1-1-1V1a1 1 0 0 1 1-1H23a1 1 0 0 1 1 1v8.25a1 1 0 0 1-1 1zm-21-2h6.25V2H2v6.25zm7.25 2H1a1 1 0 0 1-1-1V1a1 1 0 0 1 1-1h8.25a1 1 0 0 1 1 1v8.25a1 1 0 0 1-1 1z"/>
</svg>
